X:105
T:Smoky Chimney, The
R:hornpipe
Z:id:hn-hornpipe-105
M:C|
L:1/8
K:D
(3ABc|dcde fdAF|GFGA BGE2|efge cABc|defd AGFA|
dcde fdAF|GFGA BGE2|efge cABc|d2dc d2:|
|:de|fefg afdf|gfga bgeg|f2df bagf|edcB A2de|
fefg afdf|gfga bgeg|f2df e2ce|d2dc d2:|

